X: 1881
T: Arniston Castle
R: strathspey
M: 4/4
K: Amajor
f/|e<Ae>c A>ce>c|d>ac>a B>G (3Bcd|e<Ae>c A>ce>c|d>f (3efg a>AA>f|
e>Ae>c A>ce>c|e>Ae>c d>B (3Bcd|e<Ae>c A>ce>c|d>f (3efg a>AA3/2||
B/|A<ag>a f>ae>c|d>ac>a B>AG>B|A<ag>a f>ae>c|d>f (3efg a>AA>B|
A<ag>a f>ae>a|(3fga c>e f>BB>g|a>fg>e f>de>c|df (3efg a>AA3/2||

